X:11
T:Polka e. Tor Homleid (reinlander)
R:reinl=E4nder
Z:2000 Brian Wilson
Z:From a Niklas Roswell CD
M:2/4
L:1/16
K:A
|: c2cB c2cB | c2cB BAAc | efed BcdB | c2cB A2E2
| c2cB c2cB | c2cB BAAc | efec edBG | A2B2 A4 :|
|: a~gae b2a2 | cdef fec2 | BABc dBGB | A2B2 A4 :|
